src/assets/svg/ic_conference_all_channels.svg

<svg data-name="Layer 1" xmlns="http://www.w3.org/2000/svg" width="16" height="16">
    <path d="M6 1h4v4H6zm-5 9h4V6H1zm5 0h4V6H6zm5-4v4h4V6zm-5 9h4v-4H6zM2 5h1V3h2V2H2zm11 0h1V2h-3v1h2zM3 11H2v3h3v-1H3zm10 2h-2v1h3v-3h-1z" fill="#3d464d"/>
</svg>

<svg id="Layer_1" data-name="Layer 1" xmlns="http://www.w3.org/2000/svg" width="16" height="16" viewBox="0 0 16 16">
  <defs>
    <style>
      .cls-1 {
        fill: #3d464d;
      }
    </style>
  </defs>
  <title>Conference_all_channels</title>
  <path class="cls-1" d="M6,1h4V5H6ZM1,10H5V6H1Zm5,0h4V6H6Zm5-4v4h4V6ZM6,15h4V11H6ZM2,5H3V3H5V2H2ZM13,5h1V2H11V3h2ZM3,11H2v3H5V13H3Zm10,2H11v1h3V11H13Z"/>
</svg>
